!!!!SEGMENT: pl-kozmzk--mzk-m-346--029_walczynski-franciszek--cantantibus-organis-andante.krn
!!!cenid: 18xx:2824
!!!COM: Walczyński, Franciszek
!!!COM-rismid: pe30021989
!!!CDT: ~1852-1937
!!!CNT: Polish
!!!GTL: Cantantibus organis op. 10
!!!OTL: 29. Andante
!!!PDT: 1898
!!!AGN: Secular
!!!SMS-siglum: PL-KOZmzk
!!!SMS-shelfmark: mzk/m/346
!!!SMS-shelfwork: 029 G
!!!SMS-variant:
!!!SMS-altvar:
!!!NIFC-rismid: 1001109278
!!!URL-scan: https://repozytorium.nifc.pl/islandora/object/pl-kozmzk%3A7453/datastream/PDF/view
!!!ONB-nifc:
!!!key:
**kern	**kern	**dynam
*part1	*part1	*part1
*staff2	*staff1	*
*Iorgan	*Iorgan	*
*I"Organo	*I"Organo	*
*clefF4	*clefG2	*
*k[f#c#g#d#]	*k[f#c#g#d#]	*
*c#:	*c#:	*
*M4/4	*M4/4	*
*met(c)	*met(c)	*
*^	*^	*
!!LO:TX:B:t=Andante.
4G#/	(4G#\	(4g#/	4g#\	p
=1	=1	=1	=1	=1
4C#/	4C#\	4c#/	4c#\	.
4D#/	4D#\	4d#/	4d#\	.
4E/	4E\	4e/	4e\	.
4F#/	4F#\	4f#/	4f#\	.
=2	=2	=2	=2	=2
2.D#/	2.D#\)	2.d#/)	2.d#\	.
!	!LO:TX:i:b=2:t=Ped.	!	!	!LO:DY:a
4G#/	(4G#\	4g#/	([4g#\	f
=3	=3	=3	=3	=3
(2c#/	4C#\	4ee/	4g#\]	.
.	4F#\	4dd#/	4a\	.
2B#X/	4G#\	4g#/	[2f#\	.
.	4GG#\	4dd#/	.	.
=4	=4	=4	=4	=4
4c#/	2.C#;\)	2.cc#;,/	4f#\]	.
2G#;/),	.	.	4d#\	.
.	.	.	4e;\)	.
4B/	(4B\	(4b/	4b\	p
=5	=5	=5	=5	=5
4E/	4E\	4e/	4e\	.
4F#/	4F#\	4f#/	4f#\	.
4G#/	4G#\	4g#/	4g#\	.
4A/	4A\	4a/	4a\	.
=6	=6	=6	=6	=6
2.F#/,	2.F#\)	2.f#,/)	2.f#\	.
!	!LO:TX:i:b=2:t=Ped.	!	!	!
(4B/	4B\	4b/	4b\	f
=7	=7	=7	=7	=7
4B/	2E\	4ee/	2g#\	.
4e/	.	4b/	.	.
!	!	!	!	!LO:HP:a
[2c#/	2F#\	2a/	4f#\	>
.	.	.	4e\	]
=8	=8	=8	=8	=8
!!LO:LB:g=original
4c#/]	2.G#;\	2.g#;/	2.d#\	.
4A#X/	.	.	.	.
4B#X;/),	.	.	.	.
!	!	!	!LO:TX:t=P:problem=drugie ff u dołu systemu	!
4G#/	4G#\	4g#/	4g#\	ff
=9	=9	=9	=9	=9
4g#/	4g#\	4gg#/	4gg#\	.
4e/	4e\	4ee/	4ee\	.
4c#/	4c#\	4cc#/	4cc#\	.
4d#/	4d#\	4dd#/	4dd#\	.
=10	=10	=10	=10	=10
4G#/	4G#\	4g#/	4g#\	>
4E/	4E\	4e/	4e\	.
4C#/	4C#\	4c#/	4c#\	.
4D#/	4D#\	4d#/	4d#\	]
=11	=11	=11	=11	=11
4r	1GG#	(4g#/	(4e\	p
(4G#/	.	4e/	2c#\	.
[2F#/	.	4d#/	.	.
.	.	4g#/	4B#X\	.
=12	=12	=12	=12	=12
!	!	!	!	!LO:DY:a
4F#/]	2.C#\	2.c#/)	2.G#\)	pp
4D#/	.	.	.	.
4E/)	.	.	.	.
!	!LO:TX:i:b=2:t=Ped.	!	!	!LO:DY:b=2
4r	4GG#\	4r	4ryy	p
=13	=13	=13	=13	=13
1r	4AA\	1rdd	1rg	.
.	4GG#\	.	.	.
.	4FF#\	.	.	.
.	4GG#\	.	.	.
=14	=14	=14	=14	=14
4r	[1CC#	4rdd	4r	.
!	!	!	!	!LO:DY:a
(4F#/	.	(4d#/	4A\	pp
4E/	.	4c#/	2G#\	.
4F#/	.	4B#X/	.	<
*	*	*v	*v	*
=15	=15	=15	=15
2E/ 2G#	1CC#_	[1c#	[
4F#/ 4A	.	.	.
4D#/ 4F#	.	.	.
=16	=16	=16	=16
1E) 1G#	1CC#;]	1c#;])	>]
*v	*v	*	*
==	==	==
*-	*-	*-
!!!system-decoration: {(s1,s2)}
!!!RDF**kern: > = above
!!!RDF**kern: < = below
!!!AIN: 1 organ
!!!ENC: Kamil Watkowski
!!!END: 2021-08-09
